packages/sources/icons/src/vitamix/secure-payment-line.svg

<svg width="16" height="16" viewBox="0 0 16 16" xmlns="http://www.w3.org/2000/svg"><path d="M7.33333 1.33334L12.1987 2.85334C12.3344 2.89571 12.453 2.98033 12.5372 3.09487C12.6214 3.20941 12.6667 3.34786 12.6667 3.49001V4.66668H14C14.1768 4.66668 14.3464 4.73691 14.4714 4.86194C14.5964 4.98696 14.6667 5.15653 14.6667 5.33334V10.6667C14.6667 10.8435 14.5964 11.0131 14.4714 11.1381C14.3464 11.2631 14.1768 11.3333 14 11.3333L11.8533 11.334C11.5953 11.674 11.282 11.974 10.92 12.2207L7.33333 14.6667L3.74667 12.2213C3.20835 11.8543 2.76783 11.3613 2.46343 10.7853C2.15902 10.2092 1.99993 9.56754 2 8.91601V3.49001C2.00008 3.34797 2.04552 3.20967 2.12971 3.09527C2.21389 2.98086 2.33241 2.89634 2.468 2.85401L7.33333 1.33334ZM7.33333 2.72934L3.33333 3.98001V8.91601C3.33324 9.32416 3.42683 9.72689 3.60691 10.0932C3.78699 10.4594 4.04874 10.7795 4.372 11.0287L4.498 11.1193L7.33333 13.0533L9.85467 11.3333H6.66667C6.48986 11.3333 6.32029 11.2631 6.19526 11.1381C6.07024 11.0131 6 10.8435 6 10.6667V5.33334C6 5.15653 6.07024 4.98696 6.19526 4.86194C6.32029 4.73691 6.48986 4.66668 6.66667 4.66668H11.3333V3.98001L7.33333 2.72934ZM7.33333 8.00001V10H13.3333V8.00001H7.33333ZM7.33333 6.66668H13.3333V6.00001H7.33333V6.66668Z"/></svg>

<svg width="16" height="16" xmlns="http://www.w3.org/2000/svg"><path d="m7.333 1.333 4.866 1.52a.667.667 0 0 1 .468.637v1.177H14a.667.667 0 0 1 .667.666v5.334a.667.667 0 0 1-.667.666l-2.147.001c-.258.34-.571.64-.933.887l-3.587 2.446-3.586-2.446A4 4 0 0 1 2 8.916V3.49a.667.667 0 0 1 .468-.636l4.865-1.52Zm0 1.396-4 1.251v4.936a2.667 2.667 0 0 0 1.039 2.113l.126.09 2.835 1.934 2.522-1.72H6.667A.667.667 0 0 1 6 10.667V5.333a.667.667 0 0 1 .667-.666h4.666V3.98l-4-1.25Zm0 5.271v2h6V8h-6Zm0-1.333h6V6h-6v.667Z"/></svg>
